svgs/light/message-image.svg

<svg xmlns="http://www.w3.org/2000/svg" viewBox="0 0 512 512"><!--! Font Awesome Pro 6.3.0 by @fontawesome - https://fontawesome.com License - https://fontawesome.com/license (Commercial License) Copyright 2023 Fonticons, Inc. --><path d="M127.1 151.1c13.25 0 24-10.74 24-23.1c0-13.26-10.75-23.1-24-23.1s-24 10.74-24 23.1C103.1 141.3 114.7 151.1 127.1 151.1zM314.6 140.6c-11.28-15.75-38.5-15.88-50-.0313L220.6 201.8L213.6 192.9c-11.44-14.41-36.97-14.5-48.41 .0313L102.2 272.9C95.06 282 94.03 294.4 99.56 304.4C104.8 314 115.1 320 126.4 320h259.2c11 0 21.17-5.781 26.55-15.03c0-.0313-.0313 .0313 0 0c5.656-9.844 5.078-21.75-1.578-31.03L314.6 140.6zM130.2 288l58.25-75.31l20.09 25.56c4.348 5.521 17.6 10.61 25.59-.5313l54.44-78.44L381.3 288H130.2zM447.1 .0041h-384c-35.25 0-64 28.75-64 63.1v287.1c0 35.25 28.75 63.1 64 63.1h96v83.98c0 9.838 11.03 15.55 19.12 9.7l124.9-93.68h144c35.25 0 64-28.75 64-63.1V63.1C511.1 28.75 483.2 .0041 447.1 .0041zM480 352c0 17.6-14.4 32-32 32h-144.1c-6.928 0-13.67 2.248-19.21 6.406L192 460v-60c0-8.838-7.164-16-16-16H64c-17.6 0-32-14.4-32-32V64c0-17.6 14.4-32 32-32h384c17.6 0 32 14.4 32 32V352z"/></svg>

<svg xmlns="http://www.w3.org/2000/svg" viewBox="0 0 512 512"><!-- Font Awesome Pro 6.0.0-alpha2 by @fontawesome - https://fontawesome.com License - https://fontawesome.com/license (Commercial License) --><path d="M128 152C141.254 152 152 141.254 152 128C152 114.744 141.254 104 128 104S104 114.744 104 128C104 141.254 114.746 152 128 152ZM314.625 140.625C303.344 124.875 276.125 124.75 264.625 140.594L220.594 201.781L213.625 192.875C202.187 178.469 176.656 178.375 165.219 192.906L102.188 272.938C95.062 282.031 94.031 294.406 99.562 304.375C104.812 314 115.094 320 126.406 320H385.625C396.625 320 406.781 314.25 412.156 305C412.156 304.969 412.156 304.969 412.188 304.938C417.844 295.094 417.25 283.219 410.594 273.938L314.625 140.625ZM130.219 288L188.469 212.688L208.562 238.25C212.91 243.771 226.16 248.861 234.156 237.719L288.594 159.281L381.281 288H130.219ZM448 0H64C28.75 0 0 28.75 0 64V352.002C0 387.252 28.75 416.002 64 416.002H160V500.002C160 509.84 171.025 515.479 179.125 509.627L304 416.002H448C483.25 416.002 512 387.252 512 352.002V64C512 28.75 483.25 0 448 0ZM480 352.002C480 369.602 465.6 384.002 448 384.002H303.924C296.996 384.002 290.254 386.25 284.713 390.408L192 460.002V400.002C192 391.164 184.836 384.002 176 384.002H64C46.4 384.002 32 369.602 32 352.002V64C32 46.4 46.4 32 64 32H448C465.6 32 480 46.4 480 64V352.002Z"/></svg>
